X: 13112
T: Firehose, The
R: reel
M: 4/4
K: Gmajor
G2 GA BA G2|F2 FE F2 F2|D2 D2 de dc|B2 G2 G2 A2|
G2 GA BA G2|F2 FE F2 F2|D2 D2 de ^fd|g2 G2 G2 d2:|
|:g5/d5/g5/|f5/c5/f5/|g5/d5/g5/|^fg fe f2 d2|
g5/d5/g5/|f5/c5/f5/|d2 de dc BA|B2 G2 Bc df:|
g2 ^c2 g2 c2|g2 ^c2 g2 c2|g2 ^c2 g2 c2|g2 ^c2 g2 c2|

